Papirus/64x64/apps/gnome-ppp.svg

<svg width="64" xmlns="http://www.w3.org/2000/svg" version="1.1" height="64">
 <path style="opacity:.2" d="m31 12c-21 0-27 8-27 11 0 4 3 7 3 7l11-5s-1-3-1-5 9.286023-2.025343 14-2c4.384252 0.02357 14 0 14 2s-1 5-1 5l12 5s4-4 4-7-8-11-29-11zm-7.5 8c-0.831 0-1.5 0.669-1.5 1.5v3.5h-2c0 13-10 12-10 16v9s0 4 5 4h32c5 0 5-4 5-4v-9c0-3-10-3-10-16h-2v-3.5c0-0.831-0.669-1.5-1.5-1.5s-1.5 0.669-1.5 1.5v3.5h-12v-3.5c0-0.831-0.669-1.5-1.5-1.5z"/>
 <path style="fill:#c2352a" d="m31 11c-21 0-27 8-27 11 0 4 3 7 3 7l11-5s-1-3-1-5 9.286023-2.025343 14-2c4.384252 0.02357 14 0 14 2s-1 5-1 5l12 5s4-4 4-7-8-11-29-11zm-7.5 8c-0.831 0-1.5 0.669-1.5 1.5v3.5h-2c0 13-10 12-10 16v9s0 4 5 4h32c5 0 5-4 5-4v-9c0-3-10-3-10-16h-2v-3.5c0-0.831-0.669-1.5-1.5-1.5s-1.5 0.669-1.5 1.5v3.5h-12v-3.5c0-0.831-0.669-1.5-1.5-1.5z"/>
 <path style="opacity:.2" d="m31 30a10 10 0 0 0 -10 10 10 10 0 0 0 10 10 10 10 0 0 0 5.138672 -1.435547l-1.541016-2.568359a7 7 0 0 1 -3.597656 1.003906 7 7 0 0 1 -7 -7 7 7 0 0 1 7 -7 7 7 0 0 1 7 7 7 7 0 0 1 -1.005859 3.597656l2.570312 1.541016a10 10 0 0 0 1.435547 -5.138672 10 10 0 0 0 -10 -10z"/>
 <path style="fill:#ffffff" d="m31 29a10 10 0 0 0 -10 10 10 10 0 0 0 10 10 10 10 0 0 0 5.138672 -1.435547l-1.541016-2.568359a7 7 0 0 1 -3.597656 1.003906 7 7 0 0 1 -7 -7 7 7 0 0 1 7 -7 7 7 0 0 1 7 7 7 7 0 0 1 -1.005859 3.597656l2.570312 1.541016a10 10 0 0 0 1.435547 -5.138672 10 10 0 0 0 -10 -10z"/>
 <path style="opacity:.2;fill:#ffffff" d="m31 11c-21 0-27 8-27 11 0 0.24472 0.0121192 0.485881 0.0332031 0.722656 0.3345603-3.178793 6.5567699-10.722656 26.966797-10.722656 20.215185 0 28.36103 7.400699 28.943359 10.630859 0.035153-0.213883 0.056641-0.424792 0.056641-0.630859 0-3-8-11-29-11zm-7.5 8c-0.831 0-1.5 0.669-1.5 1.5v1c0-0.831 0.669-1.5 1.5-1.5s1.5 0.669 1.5 1.5v-1c0-0.831-0.669-1.5-1.5-1.5zm15 0c-0.831 0-1.5 0.669-1.5 1.5v1c0-0.831 0.669-1.5 1.5-1.5s1.5 0.669 1.5 1.5v-1c0-0.831-0.669-1.5-1.5-1.5zm-21.457031 0.785156c-0.025228 0.069345-0.042969 0.140081-0.042969 0.214844 0 1.347581 0.442087 3.087159 0.738281 4.119141l0.261719-0.119141s-0.766301-2.299973-0.957031-4.214844zm27.914062 0.001953c-0.191068 1.914467-0.957031 4.212891-0.957031 4.212891l0.263672 0.109375c0.296242-1.033401 0.736328-2.765625 0.736328-4.109375 0-0.074072-0.017344-0.144265-0.042969-0.212891zm-24.957031 4.212891c0 13-10 12-10 16v1c0-4 10-3 10-16h2v-1h-2zm5 0v1h12v-1h-12zm15 0v1h2c0 13 10 13 10 16v-1c0-3-10-3-10-16h-2z"/>
</svg>

<?xml version="1.0" encoding="UTF-8" standalone="no"?>
<svg
   id="_图层_1"
   version="1.1"
   viewBox="0 0 64 64" width="64" height="64"
   sodipodi:docname="gnome-ppp.svg"
   xml:space="preserve"
   inkscape:version="1.4 (e7c3feb100, 2024-10-09)"
   xmlns:inkscape="http://www.inkscape.org/namespaces/inkscape"
   xmlns:sodipodi="http://sodipodi.sourceforge.net/DTD/sodipodi-0.dtd"
   xmlns="http://www.w3.org/2000/svg"
   xmlns:svg="http://www.w3.org/2000/svg"><sodipodi:namedview
     id="namedview26"
     pagecolor="#505050"
     bordercolor="#eeeeee"
     borderopacity="1"
     inkscape:showpageshadow="0"
     inkscape:pageopacity="0"
     inkscape:pagecheckerboard="0"
     inkscape:deskcolor="#505050"
     inkscape:zoom="10.6875"
     inkscape:cx="32"
     inkscape:cy="28.912281"
     inkscape:window-width="1920"
     inkscape:window-height="939"
     inkscape:window-x="0"
     inkscape:window-y="34"
     inkscape:window-maximized="1"
     inkscape:current-layer="_图层_1" /><!-- Generator: Adobe Illustrator 29.0.1, SVG Export Plug-In . SVG Version: 2.1.0 Build 192)  --><defs
     id="defs6"><style
       id="style1">
      .st0 {
        fill-opacity: .5;
      }

      .st0, .st1, .st2, .st3, .st4, .st5, .st6, .st7 {
        fill: #fff;
      }

      .st8 {
        fill: #133c9a;
      }

      .st2, .st9 {
        display: none;
      }

      .st3 {
        fill-opacity: .2;
      }

      .st4 {
        fill-opacity: .9;
      }

      .st10 {
        fill: #3370ff;
      }

      .st11 {
        fill: url(#_未命名的渐变_3);
      }

      .st12 {
        fill: url(#_未命名的渐变);
      }

      .st5 {
        fill-opacity: .3;
      }

      .st6 {
        fill-opacity: 0;
      }

      .st7 {
        fill-opacity: .7;
      }

      .st13 {
        fill: #00d6b9;
      }

      .st14 {
        fill: url(#_未命名的渐变_2);
      }
    </style><radialGradient
       id="_未命名的渐变"
       data-name="未命名的渐变"
       cx="123.9"
       cy="-40.2"
       fx="123.9"
       fy="-40.2"
       r="59.4"
       gradientTransform="translate(-26.8 25.5) scale(.6 -.7)"
       gradientUnits="userSpaceOnUse"><stop
         offset="0"
         stop-color="#db202e"
         id="stop1" /><stop
         offset="1"
         stop-color="#e01b24"
         id="stop2" /></radialGradient><radialGradient
       id="_未命名的渐变_2"
       data-name="未命名的渐变 2"
       cx="67.6"
       cy="26.8"
       fx="67.6"
       fy="26.8"
       r="105.2"
       gradientTransform="translate(-26.6 25.3) scale(.6 -.7)"
       gradientUnits="userSpaceOnUse"><stop
         offset="0"
         stop-color="#ffb648"
         id="stop3" /><stop
         offset="1"
         stop-color="#ff7800"
         stop-opacity="0"
         id="stop4" /></radialGradient><radialGradient
       id="_未命名的渐变_3"
       data-name="未命名的渐变 3"
       cx="61.7"
       cy="18.6"
       fx="61.7"
       fy="18.6"
       r="68"
       gradientTransform="translate(-26.8 25.8) scale(.6 -.7)"
       gradientUnits="userSpaceOnUse"><stop
         offset="0"
         stop-color="#c64600"
         id="stop5" /><stop
         offset="1"
         stop-color="#a51d2d"
         id="stop6" /></radialGradient></defs><path
     class="st1"
     d="M47.5,64.1H13.8c-7.6,0-13.8-6.3-13.8-13.8V13.7C0,6.2,6.2,0,13.7,0h36.6c7.5,0,13.7,6.2,13.7,13.7v36.6c0,7.5-6.2,13.7-13.7,13.7h-2.9.1Z"
     id="path6"
     style="fill:#ebebeb;fill-opacity:1" /><g
     id="g26"
     transform="translate(-0.1871345,-0.88011696)"><path
       style="opacity:0.2"
       d="M 31,12 C 10,12 4,20 4,23 c 0,4 3,7 3,7 l 11,-5 c 0,0 -1,-3 -1,-5 0,-2 9.286023,-2.025343 14,-2 4.384252,0.02357 14,0 14,2 0,2 -1,5 -1,5 l 12,5 c 0,0 4,-4 4,-7 0,-3 -8,-11 -29,-11 z m -7.5,8 C 22.669,20 22,20.669 22,21.5 V 25 H 20 C 20,38 10,37 10,41 v 9 c 0,0 0,4 5,4 h 32 c 5,0 5,-4 5,-4 V 41 C 52,38 42,38 42,25 H 40 V 21.5 C 40,20.669 39.331,20 38.5,20 37.669,20 37,20.669 37,21.5 V 25 H 25 V 21.5 C 25,20.669 24.331,20 23.5,20 Z"
       id="path1" /><path
       style="fill:#c2352a"
       d="M 31,11 C 10,11 4,19 4,22 c 0,4 3,7 3,7 l 11,-5 c 0,0 -1,-3 -1,-5 0,-2 9.286023,-2.025343 14,-2 4.384252,0.02357 14,0 14,2 0,2 -1,5 -1,5 l 12,5 c 0,0 4,-4 4,-7 0,-3 -8,-11 -29,-11 z m -7.5,8 C 22.669,19 22,19.669 22,20.5 V 24 H 20 C 20,37 10,36 10,40 v 9 c 0,0 0,4 5,4 h 32 c 5,0 5,-4 5,-4 V 40 C 52,37 42,37 42,24 H 40 V 20.5 C 40,19.669 39.331,19 38.5,19 37.669,19 37,19.669 37,20.5 V 24 H 25 V 20.5 C 25,19.669 24.331,19 23.5,19 Z"
       id="path2" /><path
       style="opacity:0.2"
       d="M 31,30 A 10,10 0 0 0 21,40 10,10 0 0 0 31,50 10,10 0 0 0 36.138672,48.564453 L 34.597656,45.996094 A 7,7 0 0 1 31,47 a 7,7 0 0 1 -7,-7 7,7 0 0 1 7,-7 7,7 0 0 1 7,7 7,7 0 0 1 -1.005859,3.597656 l 2.570312,1.541016 A 10,10 0 0 0 41,40 10,10 0 0 0 31,30 Z"
       id="path3" /><path
       style="fill:#ffffff"
       d="M 31,29 A 10,10 0 0 0 21,39 10,10 0 0 0 31,49 10,10 0 0 0 36.138672,47.564453 L 34.597656,44.996094 A 7,7 0 0 1 31,46 a 7,7 0 0 1 -7,-7 7,7 0 0 1 7,-7 7,7 0 0 1 7,7 7,7 0 0 1 -1.005859,3.597656 l 2.570312,1.541016 A 10,10 0 0 0 41,39 10,10 0 0 0 31,29 Z"
       id="path4" /><path
       style="opacity:0.2;fill:#ffffff"
       d="M 31,11 C 10,11 4,19 4,22 4,22.24472 4.012119,22.485881 4.033203,22.722656 4.3677634,19.543863 10.589973,12 31,12 51.215185,12 59.36103,19.400699 59.943359,22.630859 59.978512,22.416976 60,22.206067 60,22 60,19 52,11 31,11 Z m -7.5,8 C 22.669,19 22,19.669 22,20.5 v 1 c 0,-0.831 0.669,-1.5 1.5,-1.5 0.831,0 1.5,0.669 1.5,1.5 v -1 C 25,19.669 24.331,19 23.5,19 Z m 15,0 C 37.669,19 37,19.669 37,20.5 v 1 c 0,-0.831 0.669,-1.5 1.5,-1.5 0.831,0 1.5,0.669 1.5,1.5 v -1 C 40,19.669 39.331,19 38.5,19 Z M 17.042969,19.785156 C 17.017741,19.854501 17,19.925237 17,20 c 0,1.347581 0.442087,3.087159 0.738281,4.119141 L 18,24 c 0,0 -0.766301,-2.299973 -0.957031,-4.214844 z m 27.914062,0.002 C 44.765963,21.701576 44,24 44,24 l 0.263672,0.109375 C 44.559914,23.075974 45,21.34375 45,20 45,19.92593 44.98266,19.855735 44.95703,19.787109 Z M 20,24 C 20,37 10,36 10,40 v 1 c 0,-4 10,-3 10,-16 h 2 v -1 z m 5,0 v 1 h 12 v -1 z m 15,0 v 1 h 2 c 0,13 10,13 10,16 V 40 C 52,37 42,37 42,24 Z"
       id="path5" /></g></svg>
